X:753
T:Nighean Dubh Alasdair
R:Strathspey
B:The Athole Collection
M:C
L:1/8
K:A
a|A/A/A A>B =c>AB>d|e>AA>B d/c/B/A/ =G>B|A/A/A A>B =c>AB>d|
eAAB =GEE:|
a|g<e e>g d>ed>B|=g<e e>f g>ab>a|=g<e e>g d>ed>B|e<A A>B =G<E E>a|
=g<e e>g d>ed>B|=g<e e>g gaba|=g<be<g d<gB<b|e<A A>B =GEE||

